X: 1693
T: Segâh Sazsemâîsi
C: Nâyî Osman Dede
O: Turkey
F: http://compmusic.upf.edu/node/140
N: segah--sazsemaisi--aksaksemai----nayi_osman_dede
N: makam= segah
N: form= sazsemaisi
N: usul= aksaksemai = 10/8
M: 10/8
L: 1/16
K: C _1/4B _1/4e ^f 
Q: 1/4=162
%%MIDI tuningsystem comma53
B4 ^A2G4B2 cBA4G2  | B4 ^A2Bc B2cd c2d4z2  | \
w:  1. HANE  |   | 
d4 c2d4Bc B2c4d2  | 
w:   | 
B4 e2d2 c2B2 c2d4z2  | B4 ^A2G4B2 cBA4G2  | \
w:   |   | 
B4 ^A2Bc B2cd c2d4z2  | 
w:   | 
d4 c2d4Bc B2c4d2  | B4 c2B2 ^A2G2 A2B4z2  | \
w:   |   | 
f4 ^e2d4g4f4e2  | 
w:  2. HANE VE TESLİM  | 
d4 c2d4c2 B2A4G2  | d4 c2d4B4c4d2  | \
w:   |   | 
B4 c2d4^e4f4z2  | f4 ^e2d4g4f4e2  | 
w:   |  2. HANE VE TESLİM  | 
d4 c2d4c2 B2A4G2  | d4 c2d4B4c4d2  | \
w:   |   | 
B4 c2B2 ^A2G2 A2B4z2  | 
w:   | 
g4 ^a2g2 a2ga gab4z2  | ^a3b c'2c'2 b2a2 b2g4z2  | \
w:  3. HANE  |   | 
g4 ^a2ga g2a2 b2g4a2  | 
w:   | 
b4 c'2b2 ^a2g2 a2b4z2  | g4 ^a2g2 a2ga gab4z2  | \
w:   |   | 
^a3b c'2c'2 b2a2 b2g4z2  | 
w:   | 
g4 ^a2ga g2a2 b2g4a2  | b4 c'2b2 ^a2g2 a2b4z2  | \
w:   |   | 
f4 ^e2d4g4f4e2  | 
w:  2. HANE VE TESLİM  | 
d4 c2d4c2 B2A4G2  | d4 c2d4B4c4d2  | \
w:   |   | 
B4 c2d4^e4f4z2  | f4 ^e2d4g4f4e2  | 
w:   |  2. HANE VE TESLİM  | 
d4 c2d4c2 B2A4G2  | d4 c2d4B4c4d2  | \
w:   |   | 
B4 c2B2 ^A2G2 A2B4z2  | 
w:   | 
z24  | B2c2B2^A2B2c2B2A2B6z2  | ^A2B2c2d2B2c2A2B2G6z2  | 
w:  |  4. HANE  |   | 
^A2B2A2G2A2B2A2G2A6z2  | G2^A2B2c2B2A2G2A2B6z2  | \
w:   |   | 
B2c2B2c2d6e2=f4e4  | 
w:   | 
d4c4B6^A2G6z2  | d4c4d4d2B2c4d4  | B8z4G2^A2B8  | \
w:   |   |   | 
B2c2B2^A2B2c2B2A2B6z2  | 
w:   | 
^A2B2c2d2B2c2A2B2G6z2  | ^A2B2A2G2A2B2A2G2A6z2  | \
w:   |   | 
G2^A2B2c2B2A2G2A2B6z2  | 
w:   | 
B2c2B2c2d6e2=f4e4  | d4c4B6^A2G6z2  | \
w:   |   | 
d4c4d6B2c4d4  | B8z4G2^A2B8  | 
w:   |   | 
z20  | f4 ^e2d4g4f4e2  | d4 c2d4c2 B2A4G2  | \
w:  |  2. HANE VE TESLİM  |   | 
d4 c2d4B4c4d2  | B4 c2d4^e4f4z2  | 
w:   |   | 
f4 ^e2d4g4f4e2  | d4 c2d4c2 B2A4G2  | \
w:  2. HANE VE TESLİM  |   | 
d4 c2d4B4c4d2  | B4 c2B2 ^A2G2 A2B4z2  | 
w:   |   | 
|


